public/images/off-road-icon.svg

<svg width="24" height="24" viewBox="0 0 24 24" fill="none" xmlns="http://www.w3.org/2000/svg">
<g clip-path="url(#clip0_4197_14756)">
<path d="M6.55815 8.81944L6.88281 8.53113L10.8348 12.9813L10.5101 13.2696L6.55815 8.81944Z" fill="#707680"/>
<path d="M6.61351 13.9569L6.3252 13.6322L10.7753 9.68024L11.0636 10.0049L6.61351 13.9569Z" fill="#707680"/>
<path d="M12.7478 10.0081L13.0361 9.68347L17.4863 13.6354L17.1979 13.9601L12.7478 10.0081Z" fill="#707680"/>
<path d="M13.3295 13.2705L13.0049 12.9822L16.9568 8.53205L17.2815 8.82037L13.3295 13.2705Z" fill="#707680"/>
<path d="M10.3021 9.61401H10.9951V13.6052H10.3021V9.61401Z" fill="#707680"/>
<path d="M12.8685 9.43408H13.5615V13.4253H12.8685V9.43408Z" fill="#707680"/>
<path d="M6.90812 12.9385H16.3643V13.6051H6.90812V12.9385Z" fill="#707680"/>
<path d="M20.9494 7.98352L21.6191 8.10059L20.9575 11.8854L20.2878 11.7684L20.9494 7.98352Z" fill="#707680"/>
<path d="M20.2894 11.7675L20.9561 11.8859L20.9692 11.8201L20.5657 11.75L21.2148 8.02628L20.9517 7.98242L20.2894 11.7675Z" fill="#707680"/>
<path d="M17.5596 12.1431L16.9443 12.4323L15.3099 8.95515L15.9251 8.66595L17.5596 12.1431Z" fill="#707680"/>
<path d="M17.5615 12.1447L16.9475 12.4298L16.9168 12.3728L17.2896 12.1973L15.6799 8.78066L15.9256 8.66663L17.5615 12.1447Z" fill="#707680"/>
<path d="M18.2033 8.4283L18.8496 8.26477L19.6296 11.3473L18.9834 11.5108L18.2033 8.4283Z" fill="#707680"/>
<path d="M3.7068 11.7648L3.03711 11.8818L2.3755 8.09698L3.04519 7.97991L3.7068 11.7648Z" fill="#707680"/>
<path d="M3.70605 11.7675L3.035 11.8859L3.02623 11.8201L3.42974 11.75L2.77623 8.02628L3.04378 7.98242L3.70605 11.7675Z" fill="#707680"/>
<path d="M7.04199 8.83141L7.65723 9.12061L6.0228 12.5977L5.40755 12.3085L7.04199 8.83141Z" fill="#707680"/>
<path d="M5.41187 12.3069L6.02591 12.5964L6.05222 12.5394L5.67941 12.3639L7.28906 8.94728L7.04345 8.82886L5.41187 12.3069Z" fill="#707680"/>
<path d="M5.35259 11.0035L4.68652 10.9749L4.80176 8.29744L5.46782 8.32611L5.35259 11.0035Z" fill="#707680"/>
<path d="M15.2588 16.4868C15.114 15.9781 15.0614 15.4079 15.114 14.8816L14.8684 14.8026L15.2237 13.057L15.6447 13.1886C15.9079 12.7149 16.2632 12.2938 16.6798 11.9517L16.5614 11.7237L18.0482 10.7412L18.2544 11.1316C18.7632 10.9868 19.3333 10.9342 19.8596 10.9868L19.9386 10.7412L21.6842 11.0965L21.5526 11.5175C22.0263 11.7807 22.4474 12.1359 22.7895 12.5526L23.0175 12.4342L24 13.921L23.6096 14.1272C23.7544 14.6359 23.807 15.2061 23.7544 15.7324L24 15.8114L23.6447 17.557L23.2237 17.4254C22.9605 17.8991 22.6053 18.3202 22.1886 18.6623L22.307 18.8903L20.8202 19.8728L20.614 19.4824C20.1053 19.6272 19.5351 19.6798 19.0088 19.6272L18.9298 19.8728L17.1842 19.5175L17.3158 19.0965C16.8421 18.8333 16.4211 18.4781 16.0789 18.0614L15.8509 18.1798L14.8684 16.693L15.2588 16.4868ZM21.2237 15.1535C20.9825 12.8026 17.4825 13.1052 17.6447 15.4605C17.886 17.807 21.386 17.5088 21.2237 15.1535Z" fill="#707680"/>
<path d="M18.3242 15.3071C18.3505 16.7632 20.5127 16.7632 20.5391 15.3071C20.5171 13.8509 18.3505 13.8509 18.3242 15.3071Z" fill="#707680"/>
<path d="M3.55657 15.3071C3.58289 16.7632 5.74517 16.7632 5.77148 15.3071C5.74955 13.8509 3.58289 13.8509 3.55657 15.3071Z" fill="#707680"/>
<path d="M0.40368 16.1272C0.302803 15.6097 0.298418 15.0351 0.399296 14.5132L0.162452 14.4167L0.666838 12.7062L1.07473 12.8728C1.37736 12.4255 1.76333 12.0351 2.2107 11.7281L2.10982 11.4912L3.67561 10.636L3.84666 11.0439C4.36421 10.943 4.93877 10.9386 5.4607 11.0395L5.55719 10.8027L7.26771 11.307L7.10105 11.7149C7.54842 12.0176 7.93877 12.4035 8.24578 12.8509L8.48263 12.75L9.33789 14.3158L8.93 14.4869C9.03087 15.0044 9.03526 15.579 8.93438 16.1009L9.17122 16.1974L8.66684 17.9079L8.25894 17.7412C7.95631 18.1886 7.57035 18.579 7.12298 18.886L7.22386 19.1228L5.65807 19.9781L5.48701 19.5702C4.96947 19.6711 4.39491 19.6755 3.87298 19.5746L3.77649 19.8114L2.06596 19.307L2.23263 18.8991C1.78526 18.5965 1.39491 18.2105 1.08789 17.7632L0.851049 17.8641L-0.00421429 16.2983L0.40368 16.1272ZM6.4607 15.307C6.42122 12.9474 2.90807 12.9474 2.86859 15.307C2.91245 17.6667 6.42122 17.6667 6.4607 15.307Z" fill="#707680"/>
<path d="M2.52657 8.65351C6.73271 8.54825 5.02657 8.0307 7.9257 11.0044C7.98271 11.0702 8.06605 11.1053 8.15377 11.1053H12.8073C12.9345 11.2719 14.6362 9.13597 14.7371 9.08333C14.7941 9.01754 14.8774 8.98246 14.9652 8.97807L20.5397 8.89035C20.6494 8.89035 20.7503 8.94298 20.8073 9.03509C20.9125 9.17544 21.1757 9.77632 21.4169 9.73246C21.9827 9.80702 21.8073 7.80263 21.6187 7.42983C20.1231 6.76316 15.7415 7.1579 14.9213 7.08772C14.8073 7.17105 6.89061 7.36404 6.89061 7.36404C6.92131 7.7193 2.94324 7.57456 2.77219 7.65351C2.49587 7.70614 2.38184 7.89035 2.22394 8.24123C2.15377 8.44298 2.30728 8.66228 2.52657 8.65351Z" fill="#707680"/>
<path d="M7.24609 5H13.9566C14.0619 5 14.1584 5.03509 14.2417 5.10088L16.404 6.86404L16.9961 7.35526L5.44346 7.64474L6.91276 5.1886C6.98293 5.07018 7.11013 5 7.24609 5ZM14.7987 7L15.7549 7.01316C15.8163 7.01316 15.847 6.93421 15.7943 6.89474L14.0794 5.57456C14.0136 5.52632 13.9391 5.5 13.8557 5.5H13.3119C13.2461 5.5 13.211 5.57895 13.2593 5.62719L14.4654 6.85526C14.5531 6.94737 14.6759 7 14.7987 7ZM11.4259 6.79386C11.4347 6.90789 11.5312 6.99561 11.6452 6.99561L13.4259 7.00877C13.6189 7.00877 13.7242 6.77632 13.5882 6.63596L12.575 5.57018C12.5312 5.52632 12.4742 5.5 12.4128 5.5H11.5575C11.4303 5.5 11.325 5.60965 11.3382 5.74123L11.4259 6.79386ZM7.18908 7.01754L10.6101 7C10.768 7 10.8952 6.86842 10.8864 6.71053L10.8426 5.77193C10.8338 5.62281 10.7154 5.50877 10.5663 5.50877H7.64522C7.53995 5.50877 7.43908 5.57018 7.39522 5.66667L6.93908 6.61842C6.85136 6.80263 6.98294 7.01754 7.18908 7.01754Z" fill="#707680"/>
</g>
<defs>
<clipPath id="clip0_4197_14756">
<rect width="24" height="24" fill="white" transform="matrix(-1 0 0 1 24 0)"/>
</clipPath>
</defs>
</svg>

<svg xmlns="http://www.w3.org/2000/svg" width="24" height="24" fill="none"><g fill="#707680" clip-path="url(#a)"><path d="m6.558 8.82.325-.289 3.952 4.45-.325.289z"/><path d="m6.614 13.957-.289-.325 4.45-3.952.289.325zM12.748 10.008l.288-.325 4.45 3.952-.288.325z"/><path d="m13.33 13.27-.325-.288 3.952-4.45.325.288zM10.302 9.614h.693v3.991h-.693z"/><path d="M12.869 9.434h.693v3.991h-.694z"/><path d="M6.908 12.939h9.456v.666H6.908zM20.95 7.984l.67.117-.663 3.784-.67-.117z"/><path d="m20.29 11.768.666.118.013-.066-.403-.07.649-3.724-.263-.044zM17.56 12.143l-.616.29-1.634-3.478.615-.289z"/><path d="m17.562 12.145-.614.285-.031-.057.373-.176-1.61-3.416.246-.114zM18.203 8.428l.647-.163.78 3.082-.647.164zM3.707 11.765l-.67.117-.661-3.785.67-.117z"/><path d="m3.706 11.768-.671.118-.009-.066.404-.07-.654-3.724.268-.044zM7.042 8.831l.615.29-1.634 3.477-.615-.29z"/><path d="m5.412 12.307.614.29.026-.058-.373-.175 1.61-3.417-.246-.118zM5.353 11.004l-.666-.03.115-2.677.666.03zM15.259 16.487a4.4 4.4 0 0 1-.145-1.605l-.246-.08.356-1.745.42.132a4.3 4.3 0 0 1 1.036-1.237l-.119-.228 1.487-.983.206.39a4.4 4.4 0 0 1 1.606-.144l.079-.246 1.745.356-.131.42c.473.264.894.619 1.236 1.036l.228-.119.983 1.487-.39.206c.144.509.197 1.08.144 1.605l.246.08-.355 1.745-.421-.132a4.3 4.3 0 0 1-1.035 1.237l.118.228-1.487.983-.206-.39c-.509.144-1.079.197-1.605.144l-.08.246-1.745-.356.132-.42a4.3 4.3 0 0 1-1.237-1.036l-.228.119-.983-1.487zm5.965-1.333c-.241-2.351-3.741-2.049-3.58.306.242 2.347 3.742 2.049 3.58-.307"/><path d="M18.324 15.307c.026 1.456 2.189 1.456 2.215 0-.022-1.456-2.189-1.456-2.215 0M3.557 15.307c.026 1.456 2.188 1.456 2.214 0-.021-1.456-2.188-1.456-2.214 0"/><path d="M.404 16.127a4.3 4.3 0 0 1-.005-1.614l-.237-.096.505-1.71.408.166a4.3 4.3 0 0 1 1.136-1.145l-.101-.237 1.566-.855.17.408a4.3 4.3 0 0 1 1.615-.005l.096-.236 1.71.504-.166.408c.447.303.838.688 1.145 1.136l.237-.101.855 1.566-.408.17c.1.518.105 1.093.004 1.615l.237.096-.504 1.71-.408-.166a4.3 4.3 0 0 1-1.136 1.145l.1.237-1.565.855-.171-.408a4.3 4.3 0 0 1-1.614.005l-.097.236-1.71-.504.167-.408a4.3 4.3 0 0 1-1.145-1.136l-.237.101-.855-1.566zm6.057-.82c-.04-2.36-3.553-2.36-3.592 0 .043 2.36 3.552 2.36 3.592 0M2.527 8.654c4.206-.106 2.5-.623 5.399 2.35a.3.3 0 0 0 .228.101h4.653c.127.167 1.83-1.969 1.93-2.022a.32.32 0 0 1 .228-.105l5.575-.088c.11 0 .21.053.267.145.106.14.369.741.61.697.566.075.39-1.93.202-2.302-1.496-.667-5.877-.272-6.698-.342-.114.083-8.03.276-8.03.276.03.355-3.948.21-4.119.29-.276.052-.39.236-.548.587a.31.31 0 0 0 .303.413"/><path d="M7.246 5h6.71q.16.001.286.1l2.162 1.764.592.491-11.553.29 1.47-2.456A.39.39 0 0 1 7.246 5M14.8 7l.956.013c.061 0 .092-.079.04-.118l-1.716-1.32a.37.37 0 0 0-.223-.075h-.544c-.066 0-.101.079-.053.127l1.206 1.228c.088.092.21.145.334.145m-3.373-.206a.22.22 0 0 0 .22.202l1.78.013c.193 0 .298-.233.162-.373L12.575 5.57a.23.23 0 0 0-.162-.07h-.856a.22.22 0 0 0-.219.241zm-4.237.224L10.61 7a.276.276 0 0 0 .276-.29l-.043-.938a.275.275 0 0 0-.277-.263h-2.92a.28.28 0 0 0-.25.158l-.457.951c-.088.185.044.4.25.4"/></g><defs><clipPath id="a"><path fill="#fff" d="M24 0H0v24h24z"/></clipPath></defs></svg>
